packages/icons/assets/Service.svg

<svg xmlns="http://www.w3.org/2000/svg" fill="none" viewBox="0 0 16 16"><g clip-path="url(#Service_svg__Service_svg__Service_svg__Service_svg__clip0_16_41)"><path fill="#414141" d="M8.00006 15.998L.0000610352 11.0989V9.93612L8.00604 14.8352 15.999 9.93612v1.16378L8.01105 15.992l-.01099.006zm0-2.5065L.0000610352 8.59238V7.4286L8.00604 12.3337 15.999 7.43459v1.16479L8.01105 13.4905l-.01099.001zm0-2.4256L.0000610352 6.16684V4.96707L8.00006-.00100708 15.988 4.95706v1.21077L8.00006 11.0599v.006zm0-1.15977L15.074 5.57195 7.99896 1.17876.924011 5.57195 8.00006 9.90613z"/></g><defs><clipPath id="Service_svg__Service_svg__Service_svg__Service_svg__clip0_16_41"><path fill="#fff" d="M0 0h16v16H0z"/></clipPath></defs></svg>

<svg width="16" height="16" viewBox="0 0 16 16" fill="none" xmlns="http://www.w3.org/2000/svg">
<g clip-path="url(#clip0_16_41)">
<path d="M8.00006 15.998L6.10352e-05 11.0989V9.93612L8.00604 14.8352L15.999 9.93612V11.0999L8.01105 15.992L8.00006 15.998ZM8.00006 13.4915L6.10352e-05 8.59238V7.4286L8.00604 12.3337L15.999 7.43459V8.59938L8.01105 13.4905L8.00006 13.4915ZM8.00006 11.0659L6.10352e-05 6.16684V4.96707L8.00006 -0.00100708L15.988 4.95706V6.16783L8.00006 11.0599V11.0659ZM8.00006 9.90613L15.074 5.57195L7.99896 1.17876L0.924011 5.57195L8.00006 9.90613Z" fill="#414141"/>
</g>
<defs>
<clipPath id="clip0_16_41">
<rect width="16" height="16" fill="white"/>
</clipPath>
</defs>
</svg>
